humanity-icon-theme/Humanity/categories/16/applications-games.svg

<?xml version="1.0" encoding="UTF-8" standalone="no"?>
<!-- Created with Inkscape (http://www.inkscape.org/) -->

<svg
   xmlns:svg="http://www.w3.org/2000/svg"
   xmlns="http://www.w3.org/2000/svg"
   xmlns:xlink="http://www.w3.org/1999/xlink"
   version="1.0"
   width="16"
   height="16"
   id="svg11300">
  <defs
     id="defs3">
    <linearGradient
       id="linearGradient5460">
      <stop
         id="stop5462"
         style="stop-color:#e5e5e5;stop-opacity:1"
         offset="0" />
      <stop
         id="stop5464"
         style="stop-color:#c8c8c8;stop-opacity:1"
         offset="1" />
    </linearGradient>
    <linearGradient
       id="linearGradient2296">
      <stop
         id="stop2298"
         style="stop-color:white;stop-opacity:1"
         offset="0" />
      <stop
         id="stop2300"
         style="stop-color:white;stop-opacity:0"
         offset="1" />
    </linearGradient>
    <linearGradient
       id="linearGradient3116">
      <stop
         id="stop3118"
         style="stop-color:#e5e5e5;stop-opacity:1"
         offset="0" />
      <stop
         id="stop3120"
         style="stop-color:#dfdfdf;stop-opacity:1"
         offset="1" />
    </linearGradient>
    <linearGradient
       x1="48"
       y1="18.534204"
       x2="78"
       y2="18.534204"
       id="linearGradient5596"
       xlink:href="#linearGradient2296"
       gradientUnits="userSpaceOnUse"
       gradientTransform="matrix(0.969324,0.303467,-0.313034,0.999884,-26.51354,-28.87764)" />
    <linearGradient
       x1="48"
       y1="18.534204"
       x2="78"
       y2="18.534204"
       id="linearGradient5612"
       xlink:href="#linearGradient2296"
       gradientUnits="userSpaceOnUse"
       gradientTransform="matrix(0.969324,0.303467,-0.313034,0.999884,-26.51354,-28.87764)" />
    <linearGradient
       x1="54.287079"
       y1="9.1136208"
       x2="68.843483"
       y2="38.118332"
       id="linearGradient5621"
       xlink:href="#linearGradient2296"
       gradientUnits="userSpaceOnUse"
       gradientTransform="matrix(0.2902284,-0.00423088,0.00386402,0.2921115,-12.896174,1.8392146)" />
    <linearGradient
       x1="34.561821"
       y1="17.249048"
       x2="50.808903"
       y2="44.769524"
       id="linearGradient5625"
       xlink:href="#linearGradient3116"
       gradientUnits="userSpaceOnUse"
       gradientTransform="matrix(0.2125562,0,0,0.3019575,-2.6789427,1.9683682)" />
    <linearGradient
       x1="35.321308"
       y1="24.984463"
       x2="51.861248"
       y2="41.370472"
       id="linearGradient5628"
       xlink:href="#linearGradient5460"
       gradientUnits="userSpaceOnUse"
       gradientTransform="matrix(0.259384,0,0,0.3438592,-4.2614642,0.8587442)" />
    <linearGradient
       x1="54.287079"
       y1="9.1136208"
       x2="68.843483"
       y2="38.118332"
       id="linearGradient5634"
       xlink:href="#linearGradient2296"
       gradientUnits="userSpaceOnUse"
       gradientTransform="matrix(0.2902284,-0.00423088,0.00386402,0.2921115,-6.8961745,-1.1607852)" />
    <linearGradient
       x1="34.561821"
       y1="17.249048"
       x2="50.808903"
       y2="44.769524"
       id="linearGradient5637"
       xlink:href="#linearGradient3116"
       gradientUnits="userSpaceOnUse"
       gradientTransform="matrix(0.2125562,0,0,0.3019575,3.3163422,-1.0429361)" />
    <linearGradient
       x1="35.321308"
       y1="24.984463"
       x2="51.861248"
       y2="41.370472"
       id="linearGradient5640"
       xlink:href="#linearGradient5460"
       gradientUnits="userSpaceOnUse"
       gradientTransform="matrix(0.2593842,0,0,0.343859,1.7336504,-2.152172)" />
    <radialGradient
       cx="1.5696124"
       cy="5.8843651"
       r="3.9923892"
       fx="1.5696124"
       fy="5.8843651"
       id="radialGradient6420"
       xlink:href="#linearGradient2296"
       gradientUnits="userSpaceOnUse"
       gradientTransform="matrix(1,0,0,1.3760393,0,-3.5688223)" />
    <radialGradient
       cx="7.5023456"
       cy="2.8504343"
       r="3.9923892"
       fx="7.5023456"
       fy="2.8504343"
       id="radialGradient6428"
       xlink:href="#linearGradient2296"
       gradientUnits="userSpaceOnUse"
       gradientTransform="matrix(1,0,0,1.3760393,0,-2.4364521)" />
  </defs>
  <g
     id="g6430">
    <g
       transform="matrix(0.2263944,-0.06094589,0.05973927,0.2309664,3.8244374,4.0371933)"
       id="g7999"
       style="stroke-width:4.26646566;stroke-miterlimit:4;stroke-dasharray:none;display:inline;enable-background:new">
      <path
         d="m 11.249051,13.68551 c 11.018461,7.81637 20.073808,0.268022 29.079725,9.104008 L 45.504535,4.7780871 44.31062,2.2533867 19.506897,-5.5996203 16.789787,-4.2944189 11.249051,13.68551 z"
         id="path8001"
         style="opacity:0.51648356;fill:url(#linearGradient5612);fill-opacity:1;fill-rule:evenodd;stroke:none" />
    </g>
    <rect
       width="8.9832497"
       height="11.986791"
       rx="0.88015187"
       ry="0.86860222"
       x="6.5189409"
       y="0.48657331"
       transform="matrix(0.9999983,0.00182003,-0.00162791,0.9999987,0,0)"
       id="rect8003"
       style="fill:url(#linearGradient5640);fill-opacity:1;fill-rule:nonzero;stroke:#888a85;stroke-width:1.00007629;stroke-linecap:round;stroke-linejoin:miter;stroke-miterlimit:4;stroke-opacity:1;stroke-dasharray:none;stroke-dashoffset:0;display:inline;enable-background:new" />
    <rect
       width="6.9844885"
       height="9.9870787"
       rx="0.13933504"
       ry="0.1423678"
       x="7.5179482"
       y="1.48571"
       transform="matrix(0.9999982,0.00188538,-0.00157007,0.9999988,0,0)"
       id="rect8005"
       style="fill:url(#linearGradient5637);fill-opacity:1;fill-rule:nonzero;stroke:url(#radialGradient6428);stroke-width:1.00028992;stroke-linecap:round;stroke-linejoin:miter;stroke-miterlimit:4;stroke-opacity:1;stroke-dasharray:none;stroke-dashoffset:0;display:inline;enable-background:new" />
    <path
       d="M 7.0441141,6.7387951 C 10.731364,7.847134 11.76514,4.9718101 14.996426,6.5258102 l 0.0035,-4.9670241 c 0.003,-0.2809934 -0.130984,-0.4680849 -0.547534,-0.4627942 L 7.6225869,1.0000023 C 7.230484,0.99900034 6.9855852,1.3319038 7.0006583,1.582778 l 0.043456,5.1560171 z"
       id="path8007"
       style="opacity:0.51648356;fill:url(#linearGradient5634);fill-opacity:1;fill-rule:evenodd;stroke:none;display:inline;enable-background:new" />
    <path
       d="M 10.965538,8.4187273 C 12.25524,9.745102 14.016207,8.5111108 13.999887,7.2485252 13.984997,6.0942974 13.134014,5.5448077 10.993631,3.5 8.7684182,5.4186432 7.9835447,5.8621469 8.0002607,7.2315984 8.0171568,8.649195 9.5325795,9.707264 10.965538,8.4187273 z"
       id="path8032"
       style="fill:black;fill-opacity:1;fill-rule:evenodd;stroke:none;display:inline;enable-background:new" />
    <g
       transform="matrix(0.2269563,-0.060799,0.05988753,0.2304097,-2.1831783,7.0296488)"
       id="g7873"
       style="stroke-width:4.26646566;stroke-miterlimit:4;stroke-dasharray:none">
      <path
         d="m 11.249051,13.68551 c 11.018461,7.81637 20.073808,0.268022 29.079725,9.104008 L 45.504535,4.7780871 44.31062,2.2533867 19.506897,-5.5996203 16.789787,-4.2944189 11.249051,13.68551 z"
         id="path7875"
         style="opacity:0.51648356;fill:url(#linearGradient5596);fill-opacity:1;fill-rule:evenodd;stroke:none" />
    </g>
    <rect
       width="8.9832506"
       height="11.986791"
       rx="0.88015187"
       ry="0.86860245"
       x="0.52383298"
       y="3.4974887"
       transform="matrix(0.9999983,0.00182004,-0.00162791,0.9999987,0,0)"
       id="rect7877"
       style="fill:url(#linearGradient5628);fill-opacity:1;fill-rule:nonzero;stroke:#888a85;stroke-width:1.00007606;stroke-linecap:round;stroke-linejoin:miter;stroke-miterlimit:4;stroke-opacity:1;stroke-dasharray:none;stroke-dashoffset:0" />
    <rect
       width="6.984489"
       height="9.9870796"
       rx="0.13933508"
       ry="0.1423678"
       x="1.5226651"
       y="4.4970164"
       transform="matrix(0.9999982,0.00188538,-0.00157007,0.9999988,0,0)"
       id="rect7879"
       style="fill:url(#linearGradient5625);fill-opacity:1;fill-rule:nonzero;stroke:url(#radialGradient6420);stroke-width:1.00028956;stroke-linecap:round;stroke-linejoin:miter;stroke-miterlimit:4;stroke-opacity:1;stroke-dasharray:none;stroke-dashoffset:0" />
    <path
       d="M 4.965538,7.6341157 C 6.2552403,6.1871616 8.0162074,7.5333338 7.9998874,8.9107 7.9849953,10.169858 7.1340139,10.769301 4.9936301,13 2.7684181,10.906935 1.9835447,10.423112 2.0002608,8.9291655 2.0171568,7.3826966 3.5325795,6.2284392 4.965538,7.6341157 z"
       id="path7881"
       style="fill:#c00;fill-opacity:1;fill-rule:evenodd;stroke:none" />
    <path
       d="M 1.0441142,9.7387953 C 4.7313639,10.847134 5.7651401,7.9718102 8.9964251,9.5258104 L 8.999951,4.5587861 C 9.002948,4.2777927 8.8689661,4.0907011 8.4524176,4.0959919 L 1.622587,4.0000023 c -0.3921028,-0.001 -0.63700168,0.3319014 -0.6219288,0.5827756 l 0.043456,5.1560174 z"
       id="path7885"
       style="opacity:0.51648356;fill:url(#linearGradient5621);fill-opacity:1;fill-rule:evenodd;stroke:none" />
  </g>
</svg>

<?xml version="1.0" encoding="UTF-8" standalone="no"?>
<!-- Created with Inkscape (http://www.inkscape.org/) -->
<svg id="svg11300" xmlns="http://www.w3.org/2000/svg" height="16" width="16" version="1.0" xmlns:xlink="http://www.w3.org/1999/xlink">
 <defs id="defs3">
  <linearGradient id="linearGradient5460">
   <stop id="stop5462" style="stop-color:#e5e5e5" offset="0"/>
   <stop id="stop5464" style="stop-color:#c8c8c8" offset="1"/>
  </linearGradient>
  <linearGradient id="linearGradient2296">
   <stop id="stop2298" style="stop-color:#fff" offset="0"/>
   <stop id="stop2300" style="stop-color:#fff;stop-opacity:0" offset="1"/>
  </linearGradient>
  <linearGradient id="linearGradient3116">
   <stop id="stop3118" style="stop-color:#e5e5e5" offset="0"/>
   <stop id="stop3120" style="stop-color:#dfdfdf" offset="1"/>
  </linearGradient>
  <linearGradient id="linearGradient5596" y2="18.534" xlink:href="#linearGradient2296" gradientUnits="userSpaceOnUse" x2="78" gradientTransform="matrix(.96932 .30347 -.31303 .99988 -26.514 -28.878)" y1="18.534" x1="48"/>
  <linearGradient id="linearGradient5621" y2="38.118" xlink:href="#linearGradient2296" gradientUnits="userSpaceOnUse" x2="68.843" gradientTransform="matrix(.29023 -.0042309 .0038640 .29211 -12.896 1.8392)" y1="9.1136" x1="54.287"/>
  <linearGradient id="linearGradient5625" y2="44.77" xlink:href="#linearGradient3116" gradientUnits="userSpaceOnUse" x2="50.809" gradientTransform="matrix(.21256 0 0 .30196 -2.6789 1.9684)" y1="17.249" x1="34.562"/>
  <linearGradient id="linearGradient5628" y2="41.37" xlink:href="#linearGradient5460" gradientUnits="userSpaceOnUse" x2="51.861" gradientTransform="matrix(.25938 0 0 .34386 -4.2615 .85874)" y1="24.984" x1="35.321"/>
  <linearGradient id="linearGradient5634" y2="38.118" xlink:href="#linearGradient2296" gradientUnits="userSpaceOnUse" x2="68.843" gradientTransform="matrix(.29023 -.0042309 .0038640 .29211 -6.8962 -1.1608)" y1="9.1136" x1="54.287"/>
  <linearGradient id="linearGradient5637" y2="44.77" xlink:href="#linearGradient3116" gradientUnits="userSpaceOnUse" x2="50.809" gradientTransform="matrix(.21256 0 0 .30196 3.3163 -1.0429)" y1="17.249" x1="34.562"/>
  <linearGradient id="linearGradient5640" y2="41.37" xlink:href="#linearGradient5460" gradientUnits="userSpaceOnUse" x2="51.861" gradientTransform="matrix(.25938 0 0 .34386 1.7337 -2.1522)" y1="24.984" x1="35.321"/>
  <radialGradient id="radialGradient6420" xlink:href="#linearGradient2296" gradientUnits="userSpaceOnUse" cy="5.8844" cx="1.5696" gradientTransform="matrix(1 0 0 1.376 0 -3.5688)" r="3.9924"/>
  <radialGradient id="radialGradient6428" xlink:href="#linearGradient2296" gradientUnits="userSpaceOnUse" cy="2.8504" cx="7.5023" gradientTransform="matrix(1 0 0 1.376 0 -2.4365)" r="3.9924"/>
 </defs>
 <g id="g6430">
  <g id="g7999" style="stroke-width:4.2665;enable-background:new" transform="matrix(.22639 -.060946 .059739 .23097 3.8244 4.0372)">
   <path id="path8001" style="opacity:.51648;fill-rule:evenodd;fill:url(#linearGradient5596)" d="m11.249 13.686c11.018 7.8164 20.074 0.26802 29.08 9.104l5.176-18.012-1.194-2.5246-24.804-7.853-2.717 1.3052-5.541 17.98z"/>
  </g>
  <rect id="rect8003" style="stroke-width:1.0001;stroke:#888a85;stroke-linecap:round;enable-background:new;fill:url(#linearGradient5640)" transform="matrix(1 0.00182 -.0016279 1 0 0)" rx=".88015" ry=".86860" height="11.987" width="8.9832" y=".48657" x="6.5189"/>
  <rect id="rect8005" style="stroke-width:1.0003;stroke:url(#radialGradient6428);stroke-linecap:round;enable-background:new;fill:url(#linearGradient5637)" transform="matrix(1 .0018854 -.0015701 1 0 0)" rx=".13934" ry=".14237" height="9.9871" width="6.9845" y="1.4857" x="7.5179"/>
  <path id="path8007" style="opacity:.51648;fill-rule:evenodd;enable-background:new;fill:url(#linearGradient5634)" d="m7.0441 6.7388c3.6869 1.1083 4.7209-1.767 7.9519-0.213l0.0035-4.967c0.003-0.28099-0.13098-0.46808-0.54753-0.46279l-6.8294-0.096c-0.3921-0.001-0.637 0.3319-0.6219 0.5828l0.043456 5.156z"/>
  <path id="path8032" style="enable-background:new;fill-rule:evenodd" d="m10.966 8.4187c1.289 1.3264 3.05 0.0924 3.034-1.1702-0.015-1.1542-0.866-1.7037-3.006-3.7485-2.2256 1.9186-3.0105 2.3621-2.9937 3.7316 0.0169 1.4176 1.5323 2.4757 2.9657 1.1871z"/>
  <g id="g7873" style="stroke-width:4.2665" transform="matrix(.22696 -.060799 .059888 .23041 -2.1832 7.0296)">
   <path id="path7875" style="opacity:.51648;fill:url(#linearGradient5596);fill-rule:evenodd" d="m11.249 13.686c11.018 7.8164 20.074 0.26802 29.08 9.104l5.176-18.012-1.194-2.5246-24.804-7.853-2.717 1.3052-5.541 17.98z"/>
  </g>
  <rect id="rect7877" style="stroke:#888a85;stroke-linecap:round;stroke-width:1.0001;fill:url(#linearGradient5628)" transform="matrix(1 0.00182 -.0016279 1 0 0)" rx=".88015" ry=".86860" height="11.987" width="8.9833" y="3.4975" x=".52383"/>
  <rect id="rect7879" style="stroke:url(#radialGradient6420);stroke-linecap:round;stroke-width:1.0003;fill:url(#linearGradient5625)" transform="matrix(1 .0018854 -.0015701 1 0 0)" rx=".13934" ry=".14237" height="9.9871" width="6.9845" y="4.497" x="1.5227"/>
  <path id="path7881" style="fill:#c00;fill-rule:evenodd" d="m4.9655 7.6341c1.2897-1.4469 3.0507-0.1008 3.0344 1.2766-0.0149 1.2593-0.8659 1.8583-3.0063 4.0893-2.2252-2.093-3.0101-2.577-2.9933-4.0708 0.0169-1.5465 1.5323-2.7008 2.9652-1.2951z"/>
  <path id="path7885" style="opacity:.51648;fill:url(#linearGradient5621);fill-rule:evenodd" d="m1.0441 9.7388c3.6873 1.1082 4.721-1.767 7.9523-0.213l0.0036-4.967c0.0029-0.281-0.131-0.4681-0.5476-0.4628l-6.8298-0.096c-0.3921-0.001-0.637 0.3319-0.62193 0.58278l0.043456 5.156z"/>
 </g>
</svg>
